public/logo/gesicht_logo_light.svg

<svg width="304" height="255" viewBox="0 0 304 255" fill="none" xmlns="http://www.w3.org/2000/svg">
<path d="M58.8774 119.124C47.2389 119.124 36.9695 116.728 28.0695 111.936C19.2835 107.029 12.3802 100.126 7.35968 91.2258C2.45323 82.2116 0 71.6 0 59.3909C0 47.5241 2.45323 37.1407 7.35968 28.2406C12.2661 19.3405 19.3405 12.4373 28.5829 7.53084C37.9394 2.51028 49.2357 0 62.4717 0C68.5192 0 74.1102 0.684623 79.2449 2.05387C84.4937 3.42311 89.4572 5.41992 94.1354 8.0443L94.82 32.006H93.1085L83.5238 14.2059C82.0404 11.3533 80.6712 9.29944 79.4161 8.0443C78.1609 6.78916 76.5635 5.81928 74.6237 5.13466C72.7981 4.56414 71.0865 4.16478 69.4891 3.93657C68.0057 3.59426 66.0089 3.4231 63.4986 3.4231C56.4242 3.4231 50.1485 5.30581 44.6715 9.07124C39.3087 12.8367 35.1439 18.8271 32.1772 27.0425C29.2105 35.258 27.7272 46.0408 27.7272 59.3909C27.7272 72.6269 29.0964 83.4097 31.8349 91.7392C34.6875 100.069 38.6811 106.173 43.8158 110.053C48.9504 113.818 54.8838 115.701 61.6159 115.701C62.6428 115.701 63.6127 115.644 64.5255 115.53C65.5525 115.302 66.5224 115.073 67.4352 114.845C69.6032 114.503 71.0294 113.59 71.7141 112.107C72.3987 110.623 72.741 108.855 72.741 106.801V72.9122C72.741 68.4621 70.4589 65.7236 65.8948 64.6967L58.0216 62.6428V60.9313H106.287V62.6428L103.891 63.3275C99.5553 64.6967 97.3874 67.5493 97.3874 71.8852V109.026C91.454 112.335 85.4065 114.845 79.2449 116.557C73.1974 118.268 66.4083 119.124 58.8774 119.124Z" fill="#FFFAFA"/>
<path d="M152.713 31.1503C160.13 31.1503 166.463 32.6907 171.712 35.7715C176.96 38.7381 180.954 42.8459 183.692 48.0946C186.545 53.2293 187.971 59.1056 187.971 65.7236C187.971 66.9788 187.914 68.291 187.8 69.6602C187.686 70.9153 187.458 72.0564 187.116 73.0833H136.111C136.225 85.4065 138.393 94.3066 142.615 99.7835C146.951 105.146 153.341 107.828 161.785 107.828C167.49 107.828 172.111 106.915 175.648 105.089C179.185 103.264 182.494 100.582 185.575 97.0451L187.287 98.5854C183.749 104.861 179.014 109.768 173.081 113.305C167.262 116.842 160.244 118.611 152.029 118.611C143.927 118.611 136.739 116.899 130.463 113.476C124.187 109.939 119.281 104.918 115.744 98.4143C112.207 91.9104 110.438 84.1514 110.438 75.1372C110.438 65.7807 112.492 57.8505 116.6 51.3466C120.707 44.7286 125.956 39.708 132.346 36.2849C138.85 32.8618 145.639 31.1503 152.713 31.1503ZM152.2 34.5734C148.891 34.5734 146.038 35.6003 143.642 37.6542C141.36 39.5939 139.534 43.1311 138.165 48.2658C136.91 53.2863 136.225 60.4178 136.111 69.6602H165.379C166.52 57.2229 166.063 48.2658 164.01 42.7888C161.956 37.3119 158.019 34.5734 152.2 34.5734Z" fill="#FFFAFA"/>
<path d="M223.544 118.611C217.952 118.611 212.932 117.926 208.482 116.557C204.032 115.302 199.924 113.704 196.159 111.764L196.33 91.3969H198.041L203.861 101.666C206.371 106.23 209.109 109.653 212.076 111.936C215.157 114.104 219.036 115.188 223.715 115.188C229.192 115.188 233.585 113.989 236.894 111.593C240.317 109.083 242.028 105.774 242.028 101.666C242.028 97.9008 240.83 94.82 238.434 92.4239C236.038 90.0277 231.588 87.8597 225.084 85.92L217.895 83.6949C210.935 81.6411 205.458 78.4462 201.464 74.1102C197.471 69.7743 195.474 64.4685 195.474 58.1928C195.474 50.662 198.441 44.2722 204.374 39.0234C210.308 33.7746 218.808 31.1503 229.876 31.1503C234.326 31.1503 238.491 31.6637 242.371 32.6907C246.364 33.6035 250.187 35.0298 253.838 36.9695L252.811 55.4543H251.1L245.109 44.8427C242.941 41.0773 240.773 38.4529 238.605 36.9695C236.551 35.3721 233.413 34.5734 229.192 34.5734C225.312 34.5734 221.661 35.6574 218.238 37.8253C214.815 39.9933 213.103 43.0741 213.103 47.0677C213.103 50.9472 214.529 54.028 217.382 56.3101C220.349 58.5922 224.685 60.7031 230.39 62.6428L238.092 64.8679C246.307 67.3781 252.184 70.8583 255.721 75.3083C259.258 79.6443 261.027 84.893 261.027 91.0546C261.027 99.3842 257.718 106.059 251.1 111.08C244.596 116.1 235.41 118.611 223.544 118.611Z" fill="#FFFAFA"/>
<path d="M57.9789 158.64C54.0993 158.64 50.7903 157.441 48.0518 155.045C45.4275 152.535 44.1153 149.397 44.1153 145.632C44.1153 141.752 45.4275 138.614 48.0518 136.218C50.7903 133.822 54.0993 132.624 57.9789 132.624C61.8584 132.624 65.1103 133.822 67.7347 136.218C70.3591 138.614 71.6713 141.752 71.6713 145.632C71.6713 149.397 70.3591 152.535 67.7347 155.045C65.1103 157.441 61.8584 158.64 57.9789 158.64ZM37.7825 252.433V250.721L40.1787 250.036C42.4608 249.352 44.0012 248.325 44.7999 246.956C45.7127 245.586 46.1691 243.761 46.1691 241.479V187.907C46.1691 185.511 45.7127 183.742 44.7999 182.601C44.0012 181.346 42.4608 180.49 40.1787 180.034L37.7825 179.52V177.809L69.104 167.711L70.8155 169.422L70.302 193.726V241.65C70.302 243.932 70.7014 245.758 71.5001 247.127C72.413 248.496 73.9533 249.523 76.1213 250.208L77.8329 250.721V252.433H37.7825Z" fill="#FFFAFA"/>
<path d="M121.867 255C114.108 255 107.033 253.345 100.643 250.036C94.3676 246.613 89.3471 241.707 85.5817 235.317C81.9303 228.813 80.1047 220.883 80.1047 211.527C80.1047 202.284 82.1015 194.411 86.0951 187.907C90.2029 181.289 95.6228 176.269 102.355 172.845C109.201 169.308 116.675 167.54 124.776 167.54C131.394 167.54 136.985 168.624 141.549 170.792C146.114 172.96 149.594 175.812 151.99 179.349C154.386 182.772 155.584 186.367 155.584 190.132C155.584 193.327 154.614 195.837 152.675 197.663C150.735 199.375 148.225 200.23 145.144 200.23C141.835 200.23 139.153 199.032 137.099 196.636C135.046 194.24 133.847 191.102 133.505 187.223C133.391 184.712 133.448 182.601 133.676 180.89C133.905 179.064 133.905 177.238 133.676 175.413C133.22 173.473 132.478 172.218 131.451 171.647C130.538 170.963 129.226 170.62 127.515 170.62C120.554 170.62 115.134 173.644 111.255 179.692C107.49 185.739 105.607 195.381 105.607 208.617C105.607 220.141 107.718 228.984 111.94 235.146C116.276 241.193 122.894 244.217 131.794 244.217C137.156 244.217 141.492 243.247 144.801 241.308C148.11 239.368 151.305 236.458 154.386 232.579L156.098 233.948C153.245 240.68 148.852 245.872 142.919 249.523C136.985 253.174 129.968 255 121.867 255Z" fill="#FFFAFA"/>
<path d="M154.841 252.433V250.721L156.895 250.036C161.002 248.667 163.056 245.815 163.056 241.479V150.082C163.056 147.686 162.383 125.404 162.383 125.404C162.383 125.404 161.446 118.616 156.098 118.459L152.029 118.611L156.098 116.557L173.081 109.026L187.287 98.5854L186.847 158.126V179.52C190.84 176.211 195.119 173.416 199.683 171.134C204.362 168.738 209.496 167.54 215.087 167.54C222.504 167.54 228.38 169.651 232.716 173.872C237.166 178.094 239.391 184.598 239.391 193.384V241.65C239.391 243.932 239.848 245.758 240.761 247.127C241.674 248.496 243.271 249.523 245.553 250.208L246.922 250.721V252.433H206.872V250.721L208.926 250.208C213.034 248.838 215.087 245.929 215.087 241.479V187.736C215.087 183.172 214.289 180.034 212.691 178.322C211.208 176.611 208.526 175.755 204.647 175.755C202.137 175.755 199.398 176.269 196.431 177.296C193.465 178.208 190.441 179.863 187.36 182.259V241.821C187.36 246.271 189.414 249.124 193.522 250.379L194.891 250.721V252.433H154.841Z" fill="#FFFAFA"/>
<path d="M279.304 255C272.001 255 266.296 253.174 262.189 249.523C258.195 245.872 256.198 240.052 256.198 232.065V173.53H244.388V171.819L248.496 171.134C252.033 170.335 255.057 169.194 257.567 167.711C260.192 166.227 262.759 164.231 265.269 161.72L279.304 146.145H281.016L280.502 170.107H299.672V173.53H280.331V235.146C280.331 239.14 281.187 242.163 282.898 244.217C284.724 246.271 287.006 247.298 289.745 247.298C292.141 247.298 294.252 246.727 296.077 245.586C297.903 244.331 299.729 242.677 301.554 240.623L303.266 242.335C300.984 246.214 297.846 249.295 293.852 251.577C289.859 253.859 285.009 255 279.304 255Z" fill="#FFFAFA"/>
</svg>

<?xml version="1.0" encoding="UTF-8"?>
<svg id="Lag_2" data-name="Lag 2" xmlns="http://www.w3.org/2000/svg" viewBox="0 0 303.27 255">
  <defs>
    <style>
      .cls-1 {
        fill: #fefafb;
      }
    </style>
  </defs>
  <g id="Lag_1-2" data-name="Lag 1">
    <g>
      <path class="cls-1" d="m58.88,119.12c-11.64,0-21.91-2.4-30.81-7.19-8.79-4.91-15.69-11.81-20.71-20.71C2.45,82.21,0,71.6,0,59.39s2.45-22.25,7.36-31.15c4.91-8.9,11.98-15.8,21.22-20.71C37.94,2.51,49.24,0,62.47,0c6.05,0,11.64.68,16.77,2.05,5.25,1.37,10.21,3.37,14.89,5.99l.68,23.96h-1.71l-9.58-17.8c-1.48-2.85-2.85-4.91-4.11-6.16-1.26-1.26-2.85-2.23-4.79-2.91-1.83-.57-3.54-.97-5.13-1.2-1.48-.34-3.48-.51-5.99-.51-7.07,0-13.35,1.88-18.83,5.65-5.36,3.77-9.53,9.76-12.49,17.97-2.97,8.22-4.45,19-4.45,32.35s1.37,24.02,4.11,32.35c2.85,8.33,6.85,14.43,11.98,18.31,5.13,3.76,11.07,5.65,17.8,5.65,1.03,0,2-.06,2.91-.17,1.03-.23,2-.46,2.91-.68,2.17-.34,3.59-1.26,4.28-2.74.68-1.48,1.03-3.25,1.03-5.31v-33.89c0-4.45-2.28-7.19-6.85-8.22l-7.87-2.05v-1.71h48.27v1.71l-2.4.68c-4.34,1.37-6.5,4.22-6.5,8.56v37.14c-5.93,3.31-11.98,5.82-18.14,7.53-6.05,1.71-12.84,2.57-20.37,2.57Z"/>
      <path class="cls-1" d="m152.03,118.61c1.31,0,2.59-.04,3.84-.14l-3.84.14Z"/>
      <path class="cls-1" d="m245.55,250.21c-2.28-.69-3.88-1.71-4.79-3.08-.91-1.37-1.37-3.2-1.37-5.48v-48.27c0-8.78-2.23-15.29-6.68-19.51-4.33-4.22-10.21-6.33-17.63-6.33-5.59,0-10.72,1.2-15.4,3.59-4.56,2.29-8.84,5.08-12.84,8.39v-21.39l.44-59.54-1.71-1.54c-3.08,3.53-6.39,6.21-9.93,8.04-3.53,1.83-8.15,2.74-13.86,2.74-8.44,0-14.83-2.68-19.17-8.05-4.22-5.47-6.39-14.37-6.5-26.7h51c.34-1.02.57-2.16.69-3.42.11-1.37.17-2.68.17-3.94,0-6.61-1.43-12.49-4.28-17.63-2.74-5.24-6.73-9.35-11.98-12.32-5.25-3.08-11.58-4.62-19-4.62s-13.86,1.71-20.37,5.13c-6.39,3.43-11.64,8.45-15.74,15.07-4.11,6.5-6.16,14.43-6.16,23.79s1.76,16.77,5.3,23.27c3.54,6.51,8.44,11.53,14.72,15.07,6.28,3.42,13.46,5.13,21.57,5.13l3.84-.14h.23c5.34.15,6.28,6.93,6.28,6.93,0,0,.67,22.29.67,24.68v91.4c0,4.34-2.05,7.19-6.16,8.56l-2.05.68v1.71h40.05v-1.71l-1.37-.34c-4.11-1.26-6.16-4.11-6.16-8.56v-59.56c3.08-2.4,6.1-4.05,9.07-4.96,2.96-1.03,5.7-1.54,8.21-1.54,3.88,0,6.56.85,8.05,2.56,1.6,1.71,2.39,4.85,2.39,9.42v53.74c0,4.45-2.05,7.36-6.16,8.73l-2.05.51v1.71h40.05v-1.71l-1.37-.51ZM138.16,48.27c1.37-5.14,3.2-8.68,5.48-10.62,2.39-2.05,5.25-3.08,8.56-3.08,5.82,0,9.75,2.74,11.81,8.22,2.05,5.48,2.51,14.43,1.37,26.87h-29.27c.11-9.24.8-16.37,2.05-21.39Z"/>
      <path class="cls-1" d="m223.54,118.61c-5.59,0-10.61-.68-15.06-2.05-4.45-1.25-8.56-2.85-12.32-4.79l.17-20.37h1.71l5.82,10.27c2.51,4.56,5.25,7.99,8.22,10.27,3.08,2.17,6.96,3.25,11.64,3.25,5.48,0,9.87-1.2,13.18-3.6,3.42-2.51,5.13-5.82,5.13-9.93,0-3.77-1.2-6.85-3.59-9.24-2.4-2.4-6.85-4.56-13.35-6.5l-7.19-2.23c-6.96-2.05-12.44-5.25-16.43-9.58-3.99-4.34-5.99-9.64-5.99-15.92,0-7.53,2.97-13.92,8.9-19.17,5.93-5.25,14.43-7.87,25.5-7.87,4.45,0,8.61.51,12.49,1.54,3.99.91,7.82,2.34,11.47,4.28l-1.03,18.48h-1.71l-5.99-10.61c-2.17-3.77-4.34-6.39-6.5-7.87-2.05-1.6-5.19-2.4-9.41-2.4-3.88,0-7.53,1.08-10.95,3.25-3.42,2.17-5.14,5.25-5.14,9.24s1.43,6.96,4.28,9.24c2.97,2.28,7.3,4.39,13.01,6.33l7.7,2.23c8.22,2.51,14.09,5.99,17.63,10.44,3.54,4.34,5.31,9.58,5.31,15.75,0,8.33-3.31,15-9.93,20.03-6.5,5.02-15.69,7.53-27.56,7.53Z"/>
      <path class="cls-1" d="m57.98,158.64c-3.88,0-7.19-1.2-9.93-3.6-2.62-2.51-3.94-5.65-3.94-9.41s1.31-7.02,3.94-9.41c2.74-2.4,6.05-3.59,9.93-3.59s7.13,1.2,9.76,3.59c2.62,2.4,3.94,5.53,3.94,9.41s-1.31,6.9-3.94,9.41c-2.62,2.4-5.88,3.6-9.76,3.6Zm-20.2,93.79v-1.71l2.4-.68c2.28-.68,3.82-1.71,4.62-3.08.91-1.37,1.37-3.19,1.37-5.48v-53.57c0-2.4-.46-4.16-1.37-5.31-.8-1.26-2.34-2.11-4.62-2.57l-2.4-.51v-1.71l31.32-10.1,1.71,1.71-.51,24.3v47.92c0,2.28.4,4.11,1.2,5.48.91,1.37,2.45,2.4,4.62,3.08l1.71.51v1.71h-40.05Z"/>
      <path class="cls-1" d="m121.87,255c-7.76,0-14.83-1.65-21.22-4.96-6.28-3.42-11.3-8.33-15.06-14.72-3.65-6.5-5.48-14.43-5.48-23.79s2-17.12,5.99-23.62c4.11-6.62,9.53-11.64,16.26-15.06,6.85-3.54,14.32-5.31,22.42-5.31,6.62,0,12.21,1.08,16.77,3.25,4.57,2.17,8.04,5.02,10.44,8.56,2.4,3.42,3.59,7.02,3.59,10.78,0,3.19-.97,5.71-2.91,7.53-1.94,1.71-4.45,2.57-7.53,2.57-3.31,0-5.99-1.2-8.04-3.59-2.05-2.4-3.25-5.53-3.59-9.41-.11-2.51-.06-4.62.17-6.33.23-1.83.23-3.65,0-5.48-.46-1.94-1.2-3.19-2.22-3.77-.91-.68-2.23-1.03-3.94-1.03-6.96,0-12.38,3.02-16.26,9.07-3.76,6.05-5.65,15.69-5.65,28.93,0,11.52,2.11,20.37,6.33,26.53,4.34,6.05,10.95,9.07,19.85,9.07,5.36,0,9.7-.97,13.01-2.91,3.31-1.94,6.5-4.85,9.59-8.73l1.71,1.37c-2.85,6.73-7.25,11.92-13.18,15.57-5.93,3.65-12.95,5.48-21.05,5.48Z"/>
      <path class="cls-1" d="m279.3,255c-7.3,0-13.01-1.83-17.11-5.48-3.99-3.65-5.99-9.47-5.99-17.46v-58.54h-11.81v-1.71l4.11-.68c3.54-.8,6.56-1.94,9.07-3.42,2.62-1.48,5.19-3.48,7.7-5.99l14.03-15.57h1.71l-.51,23.96h19.17v3.42h-19.34v61.62c0,3.99.86,7.02,2.57,9.07,1.83,2.05,4.11,3.08,6.85,3.08,2.4,0,4.51-.57,6.33-1.71,1.83-1.26,3.65-2.91,5.48-4.96l1.71,1.71c-2.28,3.88-5.42,6.96-9.41,9.24-3.99,2.28-8.84,3.42-14.55,3.42Z"/>
    </g>
  </g>
</svg>
